X:2
%%MIDI gchordoff
T:Les Manches Vertes 
T: or Greensleeves
M:6/8
L:1/8
K:F
P:A12
|:"Gm"B2 B B > c d | "F"c2 A F2 A | "Gm"B > A G G > A B  | "D"A2 D D3 | "Gm"B2 B B > c d | "F"c2 A F2 A | "Gm"B > A G "D7"A > G ^F | "Gm"G6 :|
P:B12
|:"Bb"f2 f f > _e d | "F"c2 A F3 | "Gm"g2 g g > a b |"Dm"a2 g d3 | "Bb"f2 f f > _e d | "F"c2 A F3 |  "Gm"B > A G "D7"A > G ^F | "Gm"G6 :|
